build/flags/Dominica.svg

<svg xmlns="http://www.w3.org/2000/svg" fill="none" viewBox="0 0 28 28" focusable="false"><defs><linearGradient id="Dominica_svg__c" x1="9.333" x2="9.333" y1="9.333" y2="18.667" gradientUnits="userSpaceOnUse"><stop offset="0" stop-color="#E02C42"/><stop offset="1" stop-color="#D22036"/></linearGradient><filter id="Dominica_svg__a"><feColorMatrix values="0 0 0 0 1 0 0 0 0 1 0 0 0 0 1 0 0 0 1 0"/></filter></defs><mask id="Dominica_svg__b" width="28" height="20" x="0" y="4" maskUnits="userSpaceOnUse"><g filter="url(#Dominica_svg__a)"><rect width="28" height="20" y="4" fill="#FFF" rx="3"/><rect width="28" height="20" y="4" stroke="#969696" stroke-opacity="0" stroke-width="0" rx="3"/></g></mask><path fill="none" d="M0 0H28V28H0z"/><rect width="28" height="20" y="4" fill="#FFF" rx="3"/><rect width="28" height="20" y="4" rx="3"/><g mask="url(#Dominica_svg__b)"><path fill="#108753" fill-rule="evenodd" d="M0 12L28 12L28 4L0 4L0 12Z"/><path d="M28 12L28 4L0 4L0 12L28 12Z"/><path fill="#108753" fill-rule="evenodd" d="M0 24L28 24L28 16L0 16L0 24Z"/><path d="M28 24L28 16L0 16L0 24L28 24Z"/><path fill="#FFF" fill-rule="evenodd" d="M16 24L12 24L12 16L0 16L0 12L12 12L12 4L16 4L16 12L28 12L28 16L16 16L16 24Z"/><path d="M16 24L12 24L12 16L0 16L0 12L12 12L12 4L16 4L16 12L28 12L28 16L16 16L16 24Z"/><path fill="#262626" fill-rule="evenodd" d="M14.6667 24L13.3333 24L13.3333 14.6667L0 14.6667L0 13.3333L13.3333 13.3333L13.3333 4L14.6667 4L14.6667 13.3333L28 13.3333L28 14.6667L14.6667 14.6667L14.6667 24Z"/><path d="M14.6667 24L13.3333 24L13.3333 14.6667L0 14.6667L0 13.3333L13.3333 13.3333L13.3333 4L14.6667 4L14.6667 13.3333L28 13.3333L28 14.6667L14.6667 14.6667L14.6667 24Z"/><path fill="#FCD449" fill-rule="evenodd" d="M13.3333 24L12 24L12 13.3333L0 13.3333L0 12L12 12L12 4L13.3333 4L13.3333 12L28 12L28 13.3333L13.3333 13.3333L13.3333 24Z"/><path d="M13.3333 24L12 24L12 13.3333L0 13.3333L0 12L12 12L12 4L13.3333 4L13.3333 12L28 12L28 13.3333L13.3333 13.3333L13.3333 24Z"/><path fill="url(#Dominica_svg__c)" fill-rule="evenodd" d="M14 18.6667C16.5773 18.6667 18.6666 16.5774 18.6666 14C18.6666 11.4227 16.5773 9.33337 14 9.33337C11.4227 9.33337 9.33331 11.4227 9.33331 14C9.33331 16.5774 11.4227 18.6667 14 18.6667Z"/><path d="M18.6666 14C18.6666 11.4227 16.5773 9.33337 14 9.33337C11.4227 9.33337 9.33331 11.4227 9.33331 14C9.33331 16.5774 11.4227 18.6667 14 18.6667C16.5773 18.6667 18.6666 16.5774 18.6666 14Z"/><path fill="none" d="M14 17.3333C15.841 17.3333 17.3334 15.8409 17.3334 14C17.3334 12.159 15.841 10.6666 14 10.6666C12.1591 10.6666 10.6667 12.159 10.6667 14C10.6667 15.8409 12.1591 17.3333 14 17.3333Z"/><path stroke="#0E673F" stroke-dasharray="0.666667 2.66667" stroke-width="1.333" d="M17.3334 14C17.3334 12.159 15.841 10.6666 14 10.6666C12.1591 10.6666 10.6667 12.159 10.6667 14C10.6667 15.8409 12.1591 17.3333 14 17.3333C15.841 17.3333 17.3334 15.8409 17.3334 14Z"/><path fill="#0E673F" fill-rule="evenodd" d="M14 15.3333C14.7364 15.3333 14.6666 14.7363 14.6666 14C14.6666 13.2636 14.7364 12.6666 14 12.6666C13.2636 12.6666 13.3333 13.2636 13.3333 14C13.3333 14.7363 13.2636 15.3333 14 15.3333Z"/><path d="M14.6666 14C14.6666 13.2636 14.7364 12.6666 14 12.6666C13.2636 12.6666 13.3333 13.2636 13.3333 14C13.3333 14.7363 13.2636 15.3333 14 15.3333C14.7364 15.3333 14.6666 14.7363 14.6666 14Z"/></g></svg>

<svg xmlns="http://www.w3.org/2000/svg" fill="none" viewBox="0 0 28 28" focusable="false"><defs><linearGradient id="Dominica_svg__e" x1="9.333" x2="9.333" y1="9.333" y2="18.667" gradientUnits="userSpaceOnUse"><stop stop-color="#E02C42"/><stop offset="1" stop-color="#D22036"/></linearGradient></defs><path fill="none" d="M0 0h28v28H0z"/><rect width="28" height="20" y="4" fill="#FFF" rx="3"/><rect width="28" height="20" y="4" rx="3"/><mask id="Dominica_svg__a" width="28" height="20" x="0" y="4" mask-type="alpha" maskUnits="userSpaceOnUse"><rect width="28" height="20" y="4" fill="#FFF" rx="3"/><rect width="28" height="20" y="4" stroke="#979797" stroke-opacity="0" stroke-width="0" rx="3"/></mask><g mask="url(#Dominica_svg__a)"><path fill="#108753" fill-rule="evenodd" d="M0 12h28V4H0z"/><path d="M28 12V4H0v8z"/></g><g mask="url(#Dominica_svg__a)"><path fill="#108753" fill-rule="evenodd" d="M0 24h28v-8H0z"/><path d="M28 24v-8H0v8z"/></g><g mask="url(#Dominica_svg__a)"><mask id="Dominica_svg__b" fill="#fff"><path fill-rule="evenodd" d="M16 24h-4v-8H0v-4h12V4h4v8h12v4H16z" clip-rule="evenodd"/></mask><path fill="#FFF" fill-rule="evenodd" d="M16 24h-4v-8H0v-4h12V4h4v8h12v4H16z" clip-rule="evenodd" mask="url(#Dominica_svg__b)"/></g><g mask="url(#Dominica_svg__a)"><mask id="Dominica_svg__c" fill="#fff"><path fill-rule="evenodd" d="M14.667 24h-1.334v-9.333H0v-1.334h13.333V4h1.334v9.333H28v1.334H14.667z" clip-rule="evenodd"/></mask><path fill="#262626" fill-rule="evenodd" d="M14.667 24h-1.334v-9.333H0v-1.334h13.333V4h1.334v9.333H28v1.334H14.667z" clip-rule="evenodd" mask="url(#Dominica_svg__c)"/></g><g mask="url(#Dominica_svg__a)"><mask id="Dominica_svg__d" fill="#fff"><path fill-rule="evenodd" d="M13.333 24H12V13.333H0V12h12V4h1.333v8H28v1.333H13.333z" clip-rule="evenodd"/></mask><path fill="#FCD449" fill-rule="evenodd" d="M13.333 24H12V13.333H0V12h12V4h1.333v8H28v1.333H13.333z" clip-rule="evenodd" mask="url(#Dominica_svg__d)"/></g><g mask="url(#Dominica_svg__a)"><path fill="url(#Dominica_svg__e)" fill-rule="evenodd" d="M14 18.66a4.665 4.665 0 1 0-.01-9.33 4.665 4.665 0 0 0 .01 9.33"/><path d="M18.66 14c0-2.58-2.09-4.67-4.66-4.67-2.58 0-4.67 2.09-4.67 4.67a4.665 4.665 0 0 0 9.33 0"/></g><g mask="url(#Dominica_svg__a)"><path stroke="#0E673F" stroke-dasharray="0.666667 2.66667" stroke-width="1.333" d="M17.33 13.99c0-1.84-1.49-3.33-3.33-3.33-1.85 0-3.34 1.49-3.34 3.33 0 1.85 1.49 3.34 3.34 3.34 1.84 0 3.33-1.49 3.33-3.34Z"/></g><g mask="url(#Dominica_svg__a)"><path fill="#0E673F" fill-rule="evenodd" d="M14 15.33c.73 0 .66-.6.66-1.34 0-.73.07-1.33-.66-1.33-.74 0-.67.6-.67 1.33 0 .74-.07 1.34.67 1.34"/><path d="M14.66 13.99c0-.73.07-1.33-.66-1.33-.74 0-.67.6-.67 1.33 0 .74-.07 1.34.67 1.34.73 0 .66-.6.66-1.34"/></g></svg>
